packages/icons/src/components/Icon/assets/default-solid/eye-off.svg

<svg width="20" height="20" viewBox="0 0 20 20" fill="none" xmlns="http://www.w3.org/2000/svg">
<path fill-rule="evenodd" clip-rule="evenodd" d="M4.30899 3.41018C4.06091 3.1621 3.6587 3.1621 3.41063 3.41018C3.16255 3.65825 3.16255 4.06046 3.41063 4.30854L15.6919 16.5898C15.94 16.8379 16.3422 16.8379 16.5903 16.5898C16.8383 16.3417 16.8383 15.9395 16.5903 15.6914L15.1121 14.2133C16.3582 13.2688 17.3349 11.9874 17.9065 10.5047C18.0311 10.1816 18.0312 9.8232 17.9068 9.49995C16.6848 6.32451 13.6052 4.0711 9.99925 4.0711C8.54538 4.0711 7.17708 4.43741 5.98158 5.08277L4.30899 3.41018ZM8.09637 7.19755L9.02105 8.12224C9.31397 7.96912 9.64717 7.88253 10.0006 7.88253C11.17 7.88253 12.1181 8.83055 12.1181 9.99999C12.1181 10.3534 12.0315 10.6866 11.8783 10.9795L12.8032 11.9044C13.1727 11.3617 13.3887 10.7061 13.3887 9.99999C13.3887 8.12889 11.8719 6.61206 10.0008 6.61206C9.29469 6.61206 8.63907 6.82804 8.09637 7.19755Z" fill="#727683"/>
<path d="M10.6343 13.3288L12.771 15.4655C11.903 15.7658 10.9709 15.9289 10.0008 15.9289C6.39481 15.9289 3.31518 13.6755 2.09322 10.5C1.96882 10.1768 1.96893 9.81843 2.09352 9.49525C2.50974 8.41555 3.14079 7.44259 3.93426 6.62873L6.67196 9.36643C6.63313 9.57167 6.61282 9.78346 6.61282 9.99999C6.61282 11.8711 8.12965 13.3879 10.0008 13.3879C10.2173 13.3879 10.4291 13.3676 10.6343 13.3288Z" fill="#727683"/>
</svg>

<svg xmlns="http://www.w3.org/2000/svg" width="20" height="20" fill="none" viewBox="0 0 20 20">
    <path fill="#727683" fill-rule="evenodd" d="M4.309 3.41a.635.635 0 1 0-.898.899l12.28 12.28a.635.635 0 1 0 .9-.898l-1.479-1.478a8.5 8.5 0 0 0 2.795-3.708 1.4 1.4 0 0 0 0-1.005A8.473 8.473 0 0 0 5.982 5.083zm3.787 3.788.925.924a2.118 2.118 0 0 1 2.857 2.857l.925.925a3.388 3.388 0 0 0-4.707-4.707" clip-rule="evenodd"/>
    <path fill="#727683" d="m10.634 13.329 2.137 2.137c-.868.3-1.8.463-2.77.463A8.47 8.47 0 0 1 2.093 10.5a1.4 1.4 0 0 1 0-1.005A8.5 8.5 0 0 1 3.935 6.63l2.738 2.737q-.06.309-.06.634a3.388 3.388 0 0 0 4.022 3.329"/>
</svg>
